X: 1
T: The Bag Of Spuds
R: reel
M: 4/4
L: 1/8
K: Ador
A2eA cAeA|ABcd edBA|G2dG BGdG|GABc dcBG|
A2eA cAeA|ABcd edcB|ABcd efge|dBGA BAA2:|
|:a2ea ageg|agbg agef|gedB GABd|gfga bgeg|
a2ea ageg|agbg ageg|d2de g2ge|dBGA BAA2:|
"variations"
|:A2eA A2eA|ABcd e2dB|G2dG BGdG|GB~B2 GBdB|
A2eA cAeA|ABcd e2dB|ABcd eg~g2|dBGA BAA2:|
|:a2ea a2ea|agbg agef|gedc BGBd|gfga bgeg|
a2ea ageg|agbg agef|gedc BGBd|1 gedB BAA2:|2 gfge dBGB||


Tune 579	Setting 13567

